X: 146
M: 6/8
L: 1/8
K: D
[|\
(f>e) d (A<F) A | (B<G) B (A<F) d |
(f>e) d (A<F) A | (Bd) c d2 A |
(f>e) d (A<F) A | (B<G) B (A<F) d |
(f>e) d (Bg) f | {f}(ed) c d2 A |]

